X:1
T:Au Chateau !
C:Jean Blanchard 
R:
A:France
%%textfont Helvetica-Narrow 10pt
%%begintext align
S:kopierte handschriftliche noten-blaetter von Maxou Heintzen
%%endtext
F:http://simonwascher.info/
Z:abc transcription Simon Wascher
M:2/4
L:1/8
K:G
V:1
"16 1"G |\
ce gf | d2-de/d/ | ce gf | ag fg |\
e/d/c gf | d3 e/d/ | ce gf | ag-g- :| g |
V:2
"16. 2" |\
G2 G2 | A4 | G2 G2 | d4 |\
G2 G2 | A4 | G2 G2 | c4 :|
V:3
"23" |\
G2 E/D/C | AG FG | E2 E/D/C | D4 |\
G2 E/D/C | AG FG | E2 E/D/C | C4 :|
V:1
|:\
a>g a/b/c' | ba a b/a/ | ge de/f/ | e/d/c B/A/G |\
a>g a/b/c' | ba a b/a/ | ge d/B/A/G/ |1 c4 :|\
[2 c3 |
V:2
|:\
A2 A/G/A | A2 A/G/A | G2 G/F/G | G2 G/F/G |\
A2 A/G/A | A2 A/G/A | G2 G/F/G | c4 :|
V:3
|:\
F2 F/E/F | F2 F/E/F | E2 E/D/C | G4 |\
F2 F/E/F | F2 F/E/F | GF/E/ DE/D/ | C4 :|
W:
W:
